public/library/carbon-perpetuals-text-light.svg

<svg width="3441" height="747" viewBox="0 0 3441 747" fill="none" xmlns="http://www.w3.org/2000/svg">
<path fill-rule="evenodd" clip-rule="evenodd" d="M725.468 0.170968C726.225 0.173141 727.956 0.207316 729.755 0.926761C734.3 2.74496 767.529 18.7314 783.149 26.2842L806.867 37.7519L780.881 42.0828C778.888 42.415 775.729 42.9919 772.806 43.6278C771.34 43.9466 770.011 44.2635 768.952 44.5554C768.384 44.7119 768.005 44.8313 767.779 44.9064C767.526 45.0981 767.186 45.3622 766.753 45.7067C765.667 46.572 764.181 47.795 762.364 49.3174C758.74 52.3535 753.949 56.4528 748.708 60.978C744.222 64.8509 739.425 69.0198 734.776 73.0751H822.665L790.579 95.1583L721.901 117.529L704.14 160.061V234.254L628.044 432.212L484.852 564.84V490.44L477.445 498.675L468.012 566.968L541.283 705.659L569.544 717.696L584.722 738.097H526.195L529.965 746.118H387.567L399.988 712.137L417.707 700.983L337.787 595.589V576.074L280.702 631.925L302.591 548.152L258.663 590.518L170.312 609.407V600.672L0.797768 741.491L21.6206 574.908L77.8206 526.875L88.8049 474.119L207.991 348.548L300.884 269.906L363.531 229.975L369.03 229.866L451.805 136.906L471.047 137.007L545.226 43.5954L612.875 4.45997L661.5 16.7493C671.455 13.6319 685.497 9.39773 697.877 6.01463C704.537 4.19462 710.836 2.58775 715.8 1.53661C718.264 1.01497 720.563 0.594477 722.486 0.366985C723.44 0.254169 724.469 0.168098 725.468 0.170968ZM404.29 580.01L409.778 573.909L486.33 690.731L510.928 707.229L512.527 710.721L480.473 698.313L404.29 580.01ZM492.444 136.993L552.34 136.872L527.768 154.053L475.09 153.776L459.179 153.808L391.858 229.414L439.534 228.47L421.883 246.121L372.97 246.539L368.566 246.626L310.841 283.42L219.51 360.74L104.23 482.195L98.6584 508.956L155.657 459.903V482.382L90.8977 537.73L72.2126 553.81L72.2406 553.675L37.434 583.423L22.6682 701.55L170.312 578.9V541.568L205.377 514.373V454.221L398.497 291.3V313.583L222.124 462.01V501.346L403.207 360.384V382.141L218.894 525.083L218.882 525.093L187.059 549.773V588.7L250.482 575.141L310.718 517.045L310.724 517.024L312.441 515.384L366.049 463.681V487.338L325.727 525.854L312.181 577.697L580.157 315.514L617.433 247.256L586.082 200.095H545.337L414.721 303.613V281.868L537.22 185.159L537.233 185.149L539.514 183.347H595.059L636.979 246.407L593.657 325.736L354.535 559.689V589.958L442.091 705.422L413.753 723.262L411.52 729.37H503.589L501.205 724.297L469.343 711.964L383.283 578.321L484.852 465.396V465.384L487.014 462.992L565.973 375.204V400.626L501.599 471.832V526.5L613.808 422.57L687.393 231.146V156.705L709.408 103.985L752.886 89.8226H690.331L706.981 75.1639C715.017 68.088 727.233 57.3923 737.763 48.3014C743.024 43.7593 747.889 39.596 751.609 36.4794C753.464 34.9254 755.073 33.5995 756.32 32.6064C756.496 32.4663 756.668 32.3297 756.837 32.1975C743.407 25.7495 729.267 19.009 724.688 16.9723C724.653 16.976 724.617 16.9799 724.58 16.9841C724.539 16.9886 724.497 16.9935 724.453 16.9986C723.265 17.1391 721.533 17.4415 719.27 17.9208C714.78 18.8715 708.846 20.3787 702.292 22.1699C689.217 25.7427 674.151 30.3139 664.27 33.4343L662.002 34.1504L615.37 22.3647L556.364 56.5L492.444 136.993ZM725.42 16.9185C725.518 16.9187 725.495 16.9255 725.378 16.9191C725.397 16.9186 725.411 16.9184 725.42 16.9185ZM768.189 44.6076C768.189 44.6082 768.173 44.619 768.145 44.6378C768.16 44.6273 768.171 44.6197 768.178 44.6148L768.187 44.6087L768.189 44.6076ZM513.39 688.715L450.684 570.021L457.071 523.777L422.211 562.327L498.477 678.713L513.39 688.715ZM602.08 58.9132L620.902 68.3786L644.616 60.5329L649.377 51.0647L630.861 41.9413L606.462 50.1993L602.08 58.9132Z" fill="url(#paint0_linear_867_1537)"/>
<path d="M3128.69 515.235H3093.51V231.058H3149.01L3405.83 482.791V231.058H3441.01V515.235H3389.41L3128.69 259.593V515.235Z" fill="url(#paint1_linear_867_1537)"/>
<path d="M2868.93 258.808H2740.33C2707.88 258.808 2687.16 263.108 2674.66 279.526C2664.1 293.598 2663.71 311.188 2663.71 335.032V409.692C2663.71 433.537 2664.1 451.127 2674.66 465.199C2687.16 481.616 2707.88 485.916 2740.33 485.916H2868.93C2901.37 485.916 2922.09 481.616 2934.6 465.199C2944.37 452.299 2945.15 435.882 2945.15 413.992V330.732C2945.15 308.842 2944.37 292.425 2934.6 279.526C2922.09 263.108 2901.37 258.808 2868.93 258.808ZM2757.53 518.751C2709.84 518.751 2677 516.405 2654.72 498.815C2633.22 481.616 2625.79 455.036 2625.79 414.383V336.987C2625.79 293.207 2632.83 264.672 2654.33 247.473C2675.83 230.273 2709.05 227.537 2757.13 227.537H2852.12C2900.2 227.537 2933.43 230.273 2954.92 247.473C2975.25 263.499 2983.46 291.252 2983.46 333.469V412.819C2983.46 454.645 2975.64 482.398 2954.92 498.815C2933.03 516.405 2900.2 518.751 2852.12 518.751H2757.53Z" fill="url(#paint2_linear_867_1537)"/>
<path d="M2428.85 383.505H2242.78V482.791H2428.85C2482.79 482.791 2495.69 474.973 2495.69 436.275C2495.69 392.105 2485.14 383.505 2428.85 383.505ZM2473.41 363.57C2513.67 366.306 2529.7 382.332 2529.7 419.076V449.175C2529.7 506.636 2492.95 515.235 2403.83 515.235H2207.6V231.058H2410.48C2450.35 231.058 2478.49 232.621 2496.08 243.566C2516.02 256.075 2520.32 273.665 2520.32 302.982C2520.32 339.334 2511.72 355.361 2473.41 363.57ZM2242.78 261.938V350.279H2404.61C2467.16 350.279 2485.92 349.498 2485.92 306.89C2485.92 287.346 2483.18 275.619 2473.8 269.756C2461.68 262.329 2440.58 261.938 2410.09 261.938H2242.78Z" fill="url(#paint3_linear_867_1537)"/>
<path d="M1819.11 515.235H1783.93V231.058H1986.8C2066.93 231.058 2098.6 240.83 2098.6 298.682V332.689C2098.6 366.306 2087.65 381.16 2048.56 389.368C2079.44 392.886 2095.47 411.649 2095.47 444.875V515.235H2060.29V451.911C2060.29 407.349 2040.35 403.831 1991.49 403.831H1819.11V515.235ZM1998.14 261.938H1819.11V370.997H1998.14C2048.56 370.997 2061.46 362.006 2061.46 323.308V309.627C2061.46 270.928 2048.56 261.938 1998.14 261.938Z" fill="url(#paint4_linear_867_1537)"/>
<path d="M1325.46 515.235L1490.42 231.058H1537.32L1702.67 515.235H1665.14L1628.01 452.693H1402.07L1365.72 515.235H1325.46ZM1419.27 422.594H1610.81L1514.26 259.202L1419.27 422.594Z" fill="url(#paint5_linear_867_1537)"/>
<path d="M1050.42 518.751C1005.86 518.751 974.983 516.796 953.874 498.815C933.548 481.616 926.903 454.645 926.903 414.383V336.987C926.903 293.207 933.548 264.672 953.874 247.473C974.201 230.273 1004.69 227.537 1050.03 227.537H1139.55C1225.54 227.537 1257.99 242.391 1257.99 307.67C1257.99 312.36 1257.99 317.442 1257.6 322.914H1225.54V318.615C1225.54 273.662 1207.56 258.808 1159.09 258.808H1035.96C1005.47 258.808 986.318 263.499 974.983 279.526C965.21 293.207 964.819 310.797 964.819 334.641V410.083C964.819 433.927 965.21 451.518 974.983 465.199C986.318 481.225 1005.47 485.916 1035.96 485.916H1158.7C1210.3 485.916 1228.28 473.017 1228.28 425.719V417.901H1260.72C1260.72 422.982 1261.11 427.673 1261.11 431.973C1261.11 464.808 1255.64 486.307 1238.44 500.77C1219.68 516.796 1187.63 518.751 1139.55 518.751H1050.42Z" fill="url(#paint6_linear_867_1537)"/>
<defs>
<linearGradient id="paint0_linear_867_1537" x1="411.732" y1="0.170898" x2="411.732" y2="745.754" gradientUnits="userSpaceOnUse">
<stop stop-color="white"/>
<stop offset="1" stop-color="#8890A4"/>
</linearGradient>
<linearGradient id="paint1_linear_867_1537" x1="2187.92" y1="88.5128" x2="2187.92" y2="658.283" gradientUnits="userSpaceOnUse">
<stop stop-color="white"/>
<stop offset="1" stop-color="#8890A4"/>
</linearGradient>
<linearGradient id="paint2_linear_867_1537" x1="2187.91" y1="88.5103" x2="2187.91" y2="658.281" gradientUnits="userSpaceOnUse">
<stop stop-color="white"/>
<stop offset="1" stop-color="#8890A4"/>
</linearGradient>
<linearGradient id="paint3_linear_867_1537" x1="2187.92" y1="88.5128" x2="2187.92" y2="658.283" gradientUnits="userSpaceOnUse">
<stop stop-color="white"/>
<stop offset="1" stop-color="#8890A4"/>
</linearGradient>
<linearGradient id="paint4_linear_867_1537" x1="2187.92" y1="88.5128" x2="2187.92" y2="658.283" gradientUnits="userSpaceOnUse">
<stop stop-color="white"/>
<stop offset="1" stop-color="#8890A4"/>
</linearGradient>
<linearGradient id="paint5_linear_867_1537" x1="2187.92" y1="88.5128" x2="2187.92" y2="658.283" gradientUnits="userSpaceOnUse">
<stop stop-color="white"/>
<stop offset="1" stop-color="#8890A4"/>
</linearGradient>
<linearGradient id="paint6_linear_867_1537" x1="2187.92" y1="88.5103" x2="2187.92" y2="658.281" gradientUnits="userSpaceOnUse">
<stop stop-color="white"/>
<stop offset="1" stop-color="#8890A4"/>
</linearGradient>
</defs>
</svg>

<svg xmlns="http://www.w3.org/2000/svg" width="3441" height="747" fill="none" viewBox="0 0 3441 747"><path fill="url(#a)" fill-rule="evenodd" d="M725.468.171c.757.002 2.488.036 4.287.756 4.545 1.818 37.774 17.804 53.394 25.357l23.718 11.468-25.986 4.33c-1.993.333-5.152.91-8.075 1.546a75 75 0 0 0-3.854.927c-.568.157-.947.276-1.173.351-.253.192-.593.456-1.026.8a246 246 0 0 0-4.389 3.611c-3.624 3.036-8.415 7.136-13.656 11.661a3677 3677 0 0 0-13.932 12.097h87.889l-32.086 22.083-68.678 22.371-17.761 42.532v74.193l-76.096 197.958L484.852 564.84v-74.4l-7.407 8.235-9.433 68.293 73.271 138.691 28.261 12.037 15.178 20.401h-58.527l3.77 8.021H387.567l12.421-33.981 17.719-11.154-79.92-105.394v-19.515l-57.085 55.851 21.889-83.773-43.928 42.366-88.351 18.889v-8.735L.798 741.491 21.62 574.908l56.2-48.033 10.984-52.756L207.99 348.548l92.893-78.642 62.647-39.931 5.499-.109 82.775-92.96 19.242.101 74.179-93.412L612.875 4.46 661.5 16.75c9.955-3.118 23.997-7.352 36.377-10.735 6.66-1.82 12.959-3.427 17.923-4.478 2.464-.522 4.763-.943 6.686-1.17a25 25 0 0 1 2.982-.196M404.29 580.01l5.488-6.101 76.552 116.822 24.598 16.498 1.599 3.492-32.054-12.408zm88.154-443.017 59.896-.121-24.572 17.181-52.678-.277-15.911.032-67.321 75.606 47.676-.944-17.651 17.651-48.913.418-4.404.087-57.725 36.794-91.331 77.32-115.28 121.455-5.572 26.761 56.999-49.053v22.479l-64.76 55.348-18.684 16.08.028-.135-34.807 29.748L22.668 701.55 170.312 578.9v-37.332l35.065-27.195v-60.152L398.497 291.3v22.283L222.124 462.01v39.336l181.083-140.962v21.757L218.894 525.083l-.012.01-31.823 24.68V588.7l63.423-13.559 60.236-58.096.006-.021 1.717-1.64 53.608-51.703v23.657l-40.322 38.516-13.546 51.843 267.976-262.183 37.276-68.258-31.351-47.161h-40.745L414.721 303.613v-21.745l122.499-96.709.013-.01 2.281-1.802h55.545l41.92 63.06-43.322 79.329-239.122 233.953v30.269l87.556 115.464-28.338 17.84-2.233 6.108h92.069l-2.384-5.073-31.862-12.333-86.06-133.643 101.569-112.925v-.012l2.162-2.392 78.959-87.788v25.422l-64.374 71.206V526.5l112.209-103.93 73.585-191.424v-74.441l22.015-52.72 43.478-14.162h-62.555l16.65-14.66a4558 4558 0 0 1 30.782-26.862c5.261-4.542 10.126-8.705 13.846-11.822a260 260 0 0 1 4.711-3.873l.517-.409c-13.43-6.448-27.57-13.188-32.149-15.225l-.108.012-.127.015c-1.188.14-2.92.443-5.183.922-4.49.95-10.424 2.458-16.978 4.249-13.075 3.573-28.141 8.144-38.022 11.264l-2.268.716-46.632-11.785L556.364 56.5zm275.745-92.385-.044.03.033-.023.009-.006zM513.39 688.715l-62.706-118.694 6.387-46.244-34.86 38.55 76.266 116.386zm88.69-629.802 18.822 9.466 23.714-7.846 4.761-9.468-18.516-9.124-24.399 8.258z" clip-rule="evenodd"/><path fill="url(#b)" d="M3128.69 515.235h-35.18V231.058h55.5l256.82 251.733V231.058h35.18v284.177h-51.6l-260.72-255.642z"/><path fill="url(#c)" d="M2868.93 258.808h-128.6c-32.45 0-53.17 4.3-65.67 20.718-10.56 14.072-10.95 31.662-10.95 55.506v74.66c0 23.845.39 41.435 10.95 55.507 12.5 16.417 33.22 20.717 65.67 20.717h128.6c32.44 0 53.16-4.3 65.67-20.717 9.77-12.9 10.55-29.317 10.55-51.207v-83.26c0-21.89-.78-38.307-10.55-51.206-12.51-16.418-33.23-20.718-65.67-20.718m-111.4 259.943c-47.69 0-80.53-2.346-102.81-19.936-21.5-17.199-28.93-43.779-28.93-84.432v-77.396c0-43.78 7.04-72.315 28.54-89.514 21.5-17.2 54.72-19.936 102.8-19.936h94.99c48.08 0 81.31 2.736 102.8 19.936 20.33 16.026 28.54 43.779 28.54 85.996v79.35c0 41.826-7.82 69.579-28.54 85.996-21.89 17.59-54.72 19.936-102.8 19.936z"/><path fill="url(#d)" d="M2428.85 383.505h-186.07v99.286h186.07c53.94 0 66.84-7.818 66.84-46.516 0-44.17-10.55-52.77-66.84-52.77m44.56-19.935c40.26 2.736 56.29 18.762 56.29 55.506v30.099c0 57.461-36.75 66.06-125.87 66.06H2207.6V231.058h202.88c39.87 0 68.01 1.563 85.6 12.508 19.94 12.509 24.24 30.099 24.24 59.416 0 36.352-8.6 52.379-46.91 60.588m-230.63-101.632v88.341h161.83c62.55 0 81.31-.781 81.31-43.389 0-19.544-2.74-31.271-12.12-37.134-12.12-7.427-33.22-7.818-63.71-7.818z"/><path fill="url(#e)" d="M1819.11 515.235h-35.18V231.058h202.87c80.13 0 111.8 9.772 111.8 67.624v34.007c0 33.617-10.95 48.471-50.04 56.679 30.88 3.518 46.91 22.281 46.91 55.507v70.36h-35.18v-63.324c0-44.562-19.94-48.08-68.8-48.08h-172.38zm179.03-253.297h-179.03v109.059h179.03c50.42 0 63.32-8.991 63.32-47.689v-13.681c0-38.699-12.9-47.689-63.32-47.689"/><path fill="url(#f)" d="m1325.46 515.235 164.96-284.177h46.9l165.35 284.177h-37.53l-37.13-62.542h-225.94l-36.35 62.542zm93.81-92.641h191.54l-96.55-163.392z"/><path fill="url(#g)" d="M1050.42 518.751c-44.56 0-75.437-1.955-96.546-19.936-20.326-17.199-26.971-44.17-26.971-84.432v-77.396c0-43.78 6.645-72.315 26.971-89.514 20.327-17.2 50.816-19.936 96.156-19.936h89.52c85.99 0 118.44 14.854 118.44 80.133 0 4.69 0 9.772-.39 15.244h-32.06v-4.299c0-44.953-17.98-59.807-66.45-59.807h-123.13c-30.49 0-49.642 4.691-60.977 20.718-9.773 13.681-10.164 31.271-10.164 55.115v75.442c0 23.844.391 41.435 10.164 55.116 11.335 16.026 30.487 20.717 60.977 20.717h122.74c51.6 0 69.58-12.899 69.58-60.197v-7.818h32.44c0 5.081.39 9.772.39 14.072 0 32.835-5.47 54.334-22.67 68.797-18.76 16.026-50.81 17.981-98.89 17.981z"/><defs><linearGradient id="a" x1="411.732" x2="411.732" y1=".171" y2="745.754" gradientUnits="userSpaceOnUse"><stop stop-color="#fff"/><stop offset="1" stop-color="#8890a4"/></linearGradient><linearGradient id="b" x1="2187.92" x2="2187.92" y1="88.513" y2="658.283" gradientUnits="userSpaceOnUse"><stop stop-color="#fff"/><stop offset="1" stop-color="#8890a4"/></linearGradient><linearGradient id="c" x1="2187.91" x2="2187.91" y1="88.51" y2="658.281" gradientUnits="userSpaceOnUse"><stop stop-color="#fff"/><stop offset="1" stop-color="#8890a4"/></linearGradient><linearGradient id="d" x1="2187.92" x2="2187.92" y1="88.513" y2="658.283" gradientUnits="userSpaceOnUse"><stop stop-color="#fff"/><stop offset="1" stop-color="#8890a4"/></linearGradient><linearGradient id="e" x1="2187.92" x2="2187.92" y1="88.513" y2="658.283" gradientUnits="userSpaceOnUse"><stop stop-color="#fff"/><stop offset="1" stop-color="#8890a4"/></linearGradient><linearGradient id="f" x1="2187.92" x2="2187.92" y1="88.513" y2="658.283" gradientUnits="userSpaceOnUse"><stop stop-color="#fff"/><stop offset="1" stop-color="#8890a4"/></linearGradient><linearGradient id="g" x1="2187.92" x2="2187.92" y1="88.51" y2="658.281" gradientUnits="userSpaceOnUse"><stop stop-color="#fff"/><stop offset="1" stop-color="#8890a4"/></linearGradient></defs></svg>
